X:87
T:The Black Cock o' Whickham
Z:Jack Campin, http://www.campin.me.uk/
S:Northumbrian Minstrelsy
M:2/4
L:1/8
K:G
Bc|d2dc|BGGB|d2dc|B2Bg|dedc|BGGB|cAFA|c2:|
dg|bgdg|Bgdg|bgfa|g2ga|bgdg|BgdB|cAFA|c2
dg|bgdg|Bgdg|bgfa|gfga|bgaf|gedB|cAFA|c2:|

